!!!!SEGMENT: pl-sa--574-a-ix-54--002_pleyel-ignace--sonata.krn
!!!cenid: 18xx:612
!!!COM: Pleyel, Ignace
!!!COM-rismID: pe24761
!!!CDT: 1757/06/18-1831/11/14
!!!CNT: French
!!!OTL: Sonata
!!!PDT:
!!!AGN: Secular; Sonata
!!!SMS-siglum: PL-SA
!!!SMS-shelfmark: 574/A IX 54
!!!SMS-shelfwork: 002 W
!!!SMS-variant:
!!!SMS-altvar:
!!!NIFC-rismSourceID: 1001065498
!!!NIFC-islandoraID:
!!!URL-pdf-islandora:
!!!URL-scan: https://bc.bdsandomierz.pl/dlibra/publication/1380/edition/1348/content @EN{Scan on Cyfrowa Biblioteka Diecezjalna w Sandomierzu} @PL{Skany w portalu Cyfrowa Biblioteka Diecezjalna w Sandomierzu}
!!!ONB-nifc: Str. 7 (s. 2) – str. 9
!!!AIN: 1 piano
!!!key:
**kern	**kern	**dynam
*part1	*part1	*part1
*staff2	*staff1	*
*Ipiano	*Iempty	*
*I"Piano	*	*
*I'P-no	*	*
*group1	*group1	*
*clefF4	*clefG2	*
*k[b-]	*k[b-]	*
*F:	*F:	*
*M2/4	*M2/4	*
*>[A,A,B,B,C,C,D,E,E,F,F,G,G,H,H,I,I1,I,I2,J,J1,J,K]	*>[A,A,B,B,C,C,D,E,E,F,F,G,G,H,H,I,I1,I,I2,J,J1,J,K]	*
*>A	*>A	*
!	!LO:TX:a:t=Andante con Variazioni	!
!	!LO:TX:a:id:t=Sonata	!
8r	8cc\	.
=1	=1	=1
!	!	!LO:DY:b:t=p.dol&colon;
8r	8.ff\L	p
8F\L	.	.
.	16aa\Jk	.
8B-\	16aa\LL	.
.	16gg\	.
8c\J	16bb-\	.
.	16ee\JJ	.
=2	=2	=2
8A\L	16gg\LL	.
.	16ff\J	.
16c\L	8ff\J	.
16A\JJ	.	.
8F\L	8r	.
8E\J	8ggT\	.
=3	=3	=3
8F\L	8aa\L	.
!	!LO:TUP:a	!
8A\J	24ff\L	.
.	24aa\	.
.	24ccc\JJ	.
8G\L	(16ccc\LL	.
.	16bb-\)	.
8F\J	(16bb-\	.
.	16aa\JJ)	.
=4	=4	=4
!LO:TX:a:t=P:problem=mixed beam	!	!
8C/L	(4aa\	.
8c\	.	.
8C/J	8gg\)	.
8r	16gg\LL	.
.	16aa\JJ	.
=5	=5	=5
(16C\LL	8.bb-\L	.
16E\	.	.
16G\	.	.
16E\JJ)	16gg\Jk	.
8F\	8aa\	.
8r	16ee\LL	.
.	16ff\JJ	.
=6	=6	=6
(16E\LL	8.gg\L	.
16G\	.	.
16B-\	.	.
16G\JJ)	16ee\Jk	.
8A\	8ff\	.
8r	(16cc\LL	.
.	16cc#X\JJ)	.
=	=	=
8B-\L	32dd\LLL	.
.	32bb-\	.
.	(32aa\	.
.	32bb-\JJJ	.
8G\J	32cccn\LLL	.
.	32bb-\	.
.	32aa\	.
.	32gg\JJJ)	.
!!LO:LB:g=original
=7	=7	=7
!LO:TX:a:t=P:problem=mixed beam	!	!
8c\L	8ff\L	.
8C/J	8eet\J	.
=8	=8	=8
8F/L	(4gg\	.
8C/	.	.
8FF/J	8ff\)	.
=:||:	=:||:	=:||:
*>B	*>B	*
8f\	16aa\LL	.
.	16ff\JJ	.
=9	=9	=9
8e\L	(16ff#X\LL	.
.	16gg\J)	.
8c\	8gg\J	.
8Bn\	16r	.
.	16ffn\LL	.
8G\J	16aa\	.
.	16ff\JJ	.
=10	=10	=10
!LO:TX:a:t=P:problem=mixed beam	!	!
8c\L	(16dd#X\LL	.
.	16ee\J)	.
8C/	8ee\J	.
8E/	16r	.
.	16g/LL	.
8C/J	16cc/	.
.	16ee/JJ	.
=11	=11	=11
8F\L	(8ee\L	.
8D\J	16dd\L)	.
.	32r	.
.	32aa\JJk	.
!LO:TX:a:t=P:problem=mixed beam	!	!
8G\L	(8aa\L	.
8GG/J	16gg\L)	.
.	32r	.
.	32cc\JJk	.
=12	=12	=12
8C/L	4f/ 4bn	.
8GG/	.	.
8C/J	8e/ 8cc	.
8r	(16gg\LL	.
.	16aa\JJ)	.
=13	=13	=13
(16C\LL	8.bb-\L	.
16E\	.	.
16G\	.	.
16E\JJ)	16gg\Jk	.
8F\	8aa\	.
8r	16ee\LL	.
.	16ff\JJ	.
=14	=14	=14
(16E\LL	8.gg\L	.
16G\	.	.
16B-\	.	.
16G\JJ	16ee\Jk	.
8F\)	8ff\	.
8r	(16cc\LL	.
.	16cc#X\JJ)	.
!!LO:LB:g=original
=15	=15	=15
8B-\L	32dd\LLL	.
.	32bb-\	.
.	(32aa\	.
.	32bb-\JJJ	.
8G\J	32cccn\LLL	.
.	32bb-\	.
.	32aa\	.
.	32gg\JJJ)	.
!LO:TX:a:t=P:problem=mixed beam	!	!
8c\L	8ff\L	.
8C/J	8eet\J	.
=	=	=
8F/L	(4gg\	.
8C/	.	.
8FF/J	8ff\)	.
=16:|!	=16:|!	=16:|!
*>C	*>C	*
*k[b-]	*k[b-]	*
*M2/4	*M2/4	*
!	!LO:TX:a:t=Var.1.	!
8r	16cc\LL	.
.	16ff\JJ	.
=17	=17	=17
8FF/L	(4aa\	.
8AA/J	.	.
8BB-/L	32aa\LLL	.
.	32gg\)	.
.	32ff#X\	.
.	32gg\JJJ	.
8C/J	32bb-\LLL	.
.	32gg\	.
.	32ffn\	.
.	32ee\JJJ	.
=18	=18	=18
.	32qqgg/	.
4FF/	16ff\LL	.
.	32ee\L	.
.	32dd\JJJ	.
.	32cc/LLL	.
.	32b-/	.
.	32a/	.
.	32g/JJJ	.
8r	8f/	.
8E\	8gg\	.
=19	=19	=19
.	8qbb-/	.
8F\L	16aa\LL	.
.	32gg\L	.
.	32aa\JJJ	.
8A\	32cc\LLL	.
.	32ff\	.
.	32aa\	.
.	32ccc\JJJ	.
8G\	32ccc\LLL	.
.	32bb-\	.
.	32cc\	.
.	32bb-\JJJ	.
8F\J	32bb-\LLL	.
.	32aa\	.
.	32cc\	.
.	32aa\JJJ	.
!!LO:LB:g=original
=20	=20	=20
8r	(4ff\ 4aa	.
!LO:TX:a:t=P:problem=mixed beam	!	!
8C/L	.	.
8c\	8ee\) 8gg	.
8C/J	16gg\LL	.
.	16aa\JJ	.
=21	=21	=21
32E\LLL	8bb-\L	.
32G\	.	.
32c\	.	.
32G\JJJ	.	.
*rep	*	*
32E\LLL	16bb-\L	.
32G\	.	.
32c\	16gg\JJ	.
32G\JJJ	.	.
*Xrep	*	*
32F\LLL	8aa\	.
32A\	.	.
32c\	.	.
32A\JJJ	.	.
32F\LLL	8r	.
32A\	.	.
32c\	.	.
32A\JJJ	.	.
=22	=22	=22
32G\LLL	8gg\L	.
32B-\	.	.
32c\	.	.
32B-\JJJ	.	.
32G\LLL	16gg\L	.
32B-\	.	.
32c\	16ee\JJ	.
32B-\JJJ	.	.
32F\LLL	8ff\	.
32A\	.	.
32c\	.	.
32A\JJJ	.	.
32F\LLL	8cc\	.
32A\	.	.
32c\	.	.
32A\JJJ	.	.
=23	=23	=23
8B-\L	32dd\LLL	.
.	32gg\	.
.	32ff#X\	.
.	32gg\JJJ	.
8G\J	32aa\LLL	.
.	32gg\	.
.	32bb-\	.
.	32gg\JJJ	.
!LO:TX:a:t=P:problem=mixed beam	!	!
8c\L	8ffn\L	.
8C/J	8ggT\J	.
=24	=24	=24
16FF/LL	(4gg\	.
32GG/L	.	.
32AA/JJJ	.	.
32BB-/LLL	.	.
32C/	.	.
32D/	.	.
32E/JJJ	.	.
8F\	8ff\)	.
=:||	=:||	=
*>D	*>D	*
8r	32dd\LLL	.
.	32ff\	.
.	32aa\	.
.	32ff\JJJ	.
=25	=25	=25
8r	32ff#X\LLL	.
.	32gg\	.
.	32aa\	.
.	32gg\JJJ	.
8E\L 8G 8c	32ff#\LLL	.
.	32gg\	.
.	32aa\	.
.	32gg\JJJ	.
8E\ 8G 8c	8gg\	.
8D\J 8G 8Bn	32g\LLL	.
.	32bn\	.
.	32dd\	.
.	32ffn\JJJ	.
!!LO:PB:g=original
=26	=26	=26
8r	32dd#X\LLL	.
.	32ee\	.
.	32ff\	.
.	32ee\JJJ	.
8C\L 8G 8c	32dd#\LLL	.
.	32ee\	.
.	32ff\	.
.	32ee\JJJ	.
8C\ 8G 8c	32ee\LLL	.
.	32gg\	.
.	32ff#X\	.
.	32gg\JJJ	.
8E\J 8G 8c	32aa\LLL	.
.	32gg\	.
.	32ffn\	.
.	32ee\JJJ	.
=27	=27	=27
8F\L 8A 8c	(16ee\LL	.
.	16dd\JJ)	.
8F\ 8A 8d	(32a\LLL	.
.	32dd\	.
.	32ff\	.
.	32aa\JJJ)	.
8G\ 8e	(32aa\LLL	.
.	32gg\)	.
.	(32gg\	.
.	32ff\JJJ)	.
8G\J 8f	(32ff\LLL	.
.	32ee\)	.
.	(32ee\	.
.	32dd\JJJ)	.
=28	=28	=28
16C\LL	(4f/ 4dd	.
16c\	.	.
16G\	.	.
16E\JJ	.	.
8C/	8e/) 8cc	.
8r	16gg\LL	.
.	16aa\JJ	.
=29	=29	=29
32E\LLL	8bb-\L	.
32G\	.	.
32c\	.	.
32G\JJJ	.	.
32E\LLL	(16bb-\L	.
32G\	.	.
32c\	16gg\JJ)	.
32G\JJJ	.	.
32F\LLL	8aa\	.
32A\	.	.
32c\	.	.
32A\JJJ	.	.
32F\LLL	8r	.
32A\	.	.
32c\	.	.
32A\JJJ	.	.
=	=	=
32G\LLL	8gg\L	.
32B-\	.	.
32c\	.	.
32B-\JJJ	.	.
32G\LLL	16gg\L	.
32B-\	.	.
32c\	16ee\JJ	.
32B-\JJJ	.	.
!!LO:LB:g=original
=30	=30	=30
32F\LLL	8ff\	.
32A\	.	.
32c\	.	.
32A\JJJ	.	.
32F\LLL	8cc\	.
32A\	.	.
32c\	.	.
32A\JJJ	.	.
=31	=31	=31
8B-\L	32dd\LLL	.
.	32gg\	.
.	32ff#X\	.
.	32gg\JJJ	.
8G\J	32aa\LLL	.
.	32gg\	.
.	32bb-\	.
.	32gg\JJJ	.
!LO:TX:a:t=P:problem=mixed beam	!	!
8c\L	8ff#X\L	.
8C/J	8ggT\J	.
=32	=32	=32
16FF/LL	(4gg\	.
32GG/L	.	.
32AA/JJJ	.	.
32BB-/LLL	.	.
32C/	.	.
32D/	.	.
32E/JJJ	.	.
8F\	8ff\)	.
8r	32cc\LLL	.
.	32ff\	.
.	32aa\	.
.	32ff\JJJ	.
=33	=33	=33
8r	32ff#X\LLL	.
.	32gg\	.
.	32aa\	.
.	32gg\JJJ	.
8E\L 8G 8c	32ff#\LLL	.
.	32gg\	.
.	32aa\	.
.	32gg\JJJ	.
8E\ 8G 8c	8gg\	.
8D\J 8G 8Bn	32g/LLL	.
.	32bn/	.
.	32dd/	.
.	32ffn/JJJ	.
=34	=34	=34
8r	32dd#X\LLL	.
.	32ee\	.
.	32ff\	.
.	32ee\JJJ	.
8C\L 8G 8c	32dd#\LLL	.
.	32ee\	.
.	32ff\	.
.	32ee\JJJ	.
8C\ 8G 8c	32ee\LLL	.
.	32gg\	.
.	32ff#X\	.
.	32gg\JJJ	.
8E\J 8G 8c	32aa\LLL	.
.	32gg\	.
.	32ffn\	.
.	32ee\JJJ	.
!!LO:LB:g=original
=35	=35	=35
8F\L 8A 8c	16ee\LL	.
.	16dd\JJ	.
8F\J 8A 8d	(32a\LLL	.
.	32dd\	.
.	32ff\	.
.	32aa\JJJ)	.
8G\L 8e	(32aa\LLL	.
.	32gg\)	.
.	(32gg\	.
.	32ff\)JJJ	.
8G\J 8f	(32ff\LLL	.
.	32ee\)	.
.	(32ee\	.
.	32dd\JJJ)	.
=36	=36	=36
16C\LL	(4f/ 4dd	.
16c\	.	.
16G\	.	.
16E\JJ	.	.
8C/	8e/) 8cc	.
.	8qaa/	.
8r	32gg\LLL	.
.	32ff#X\	.
.	32gg\	.
.	32aa\JJJ	.
=37	=37	=37
8r	32bb-X\LLL	.
.	32gg\	.
.	32ee\	.
.	32cc\JJJ	.
8C\L 8G	32b-/LLL	.
.	32cc/	.
.	32g/	.
.	32cc/JJJ	.
8F\J 8A	8a/	.
.	8qaa/	.
8r	32gg\LLL	.
.	32ff#X\	.
.	32gg\	.
.	32aa\JJJ	.
=38	=38	=38
8r	32bb-\LLL	.
.	32gg\	.
.	32ee\	.
.	32cc\JJJ	.
8C\L 8G	32b-/LLL	.
.	32cc/	.
.	32g/	.
.	32cc/JJJ	.
8F\ 8A	8a/	.
8A\J	32f/LLL	.
.	32a/	.
.	32cc/	.
.	32ff/JJJ	.
=	=	=
8B-\L	32ee\LLL	.
.	32dd\	.
.	32gg\	.
.	32ff#X\JJJ	.
8G\J	32aa\LLL	.
.	32gg\	.
.	32bb-\	.
.	32gg\JJJ	.
!!LO:LB:g=original
=39	=39	=39
!LO:TX:a:t=P:problem=mixed beam	!	!
8c\L	8ffn\L	.
8C/J	8ggT\J	.
=	=	=
16FF/LL	4ff\	.
32GG/L	.	.
32AA/JJJ	.	.
32BB-/LLL	.	.
32C/	.	.
32D/	.	.
32E/JJJ	.	.
8F\	8r	.
==40	==40	==40
*k[b-]	*k[b-]	*
*M2/4	*M2/4	*
*>E	*>E	*
!	!LO:TX:a:t=Var&colon; 2.	!
8r	8cc\	.
=41	=41	=41
*^	*	*
8r	8ryy	8.ff\L	.
!	!	!LO:N:vis=4	!
8C/	8AA\L	.	.
.	.	16ff#X\Jk	.
!	!	!LO:N:vis=4	!
8D/	8BB-\	16gg\LL	.
.	.	16aa\	.
16E/LL	8C\J	16bb-\	.
16G/JJ	.	16ee\JJ	.
*v	*v	*	*
=42	=42	=42
8.F\L 8.A	(16gg\LL	.
.	16ffn\J	.
.	8ff\J)	.
16G\Jk 16B-	.	.
8A\L 8c	8r	.
8E\J 8c	8gg\	.
=43	=43	=43
*^	*	*
2c/	8F\L	(16gg\LL	.
.	.	16gg#X\JJ)	.
.	8A\	16aa\KL	.
.	.	8ff\	.
.	8G\	.	.
.	.	8ee\ 8bb-	.
.	8F\J	.	.
.	.	16ff\Jk 16aa	.
*v	*v	*	*
=44	=44	=44
!LO:TX:a:t=P:problem=mixed beam	!	!
8C/L	(4ff\ 4aa	.
8c\	.	.
8C/J	8ee\) 8gg	.
8r	16gg\LL	.
.	16aa\JJ	.
=	=	=
16C\LL	8.bb-\L	.
16E\	.	.
16G\	.	.
16E\JJ	16gg\Jk	.
!!LO:LB:g=original
=45	=45	=45
16C/LL	8aa\	.
16F/	.	.
16A/	8ryy	.
16F/JJ	.	.
=46	=46	=46
16C\LL	8.gg\L	.
16G\	.	.
16B-\	.	.
16G\JJ	16ee\Jk	.
16C\LL	8ff\	.
16F\	.	.
16A\	16cc\LL	.
16F\JJ	16cc#X\JJ	.
!!LO:TX:a:t=P:problem:wykreślony takt
=47	=47	=47
8B-\L	16cc#X\KL	.
.	8dd\	.
8G\J	.	.
.	8b-\ 8gg	.
!LO:TX:a:t=P:problem=mixed beam	!	!
8c\L	.	.
.	8a\ 8ff	.
8C/J	.	.
.	16g\Jk 16ee	.
=48	=48	=48
16FF/LL	(4g\ 4ee	.
16F/	.	.
16C/	.	.
16AA/JJ	.	.
8FF/	8a\) 8ff	.
=:||:	=:||:	=:||:
*>F	*>F	*
8r	16aa\LL	.
.	16ff\JJ	.
=49	=49	=49
8r	(16ff#X\LL	.
.	16gg\J)	.
8E\L 8c	(8gg\J	.
8D\ 8Bn	16gg\LL)	.
.	16ff#X\	.
8G\J 8B	16ffn\	.
.	16dd\JJ	.
=50	=50	=50
*^	*	*
8r	8ryy	(16dd#X\LL	.
.	.	16ee\J)	.
8G/L	8C\L	(8ee\J	.
8G/	8E\	16ee\KL)	.
.	.	8gg\	.
8G/J	8C\J	.	.
.	.	16ee\Jk	.
!!LO:PB:g=original
=51	=51	=51	=51
4A/	4F\	16cc#X\LL	.
.	.	16ddn\	.
.	.	16ee\	.
.	.	16ff\JJ	.
8r	4ryy	16gg\LL	.
.	.	16gg#X\	.
8G\ 8f	.	16aa\	.
.	.	16bn\JJ	.
*v	*v	*	*
=52	=52	=52
8c/L	4f/ 4bn	.
8G/	.	.
8C/J	8e/ 8ccn	.
8r	16gg\LL	.
.	16aa\JJ	.
=53	=53	=53
16C/LL	8.bb-X\L	.
16E/	.	.
16G/	.	.
16E/JJ	16gg\Jk	.
16C/LL	8aa\	.
16F/	.	.
16A/	8r	.
16F/JJ	.	.
=54	=54	=54
16C\LL	8.gg\L	.
16G\	.	.
16B-\	.	.
16G\JJ	16ee\Jk	.
16C\LL	8ff\L	.
16F\	.	.
16A\	16cc\L	.
16F\JJ	(16cc#X\JJ	.
=55	=55	=55
8B-\L	16cc\KL)	.
.	8dd\	.
8G\J	.	.
.	8b-\ 8gg	.
8c\L	.	.
.	8a\ 8ff	.
8C\J	.	.
.	16g\Jk 16ee	.
=	=	=
16FF/LL	(4g\ 4ee	.
16F/	.	.
16C/	.	.
16AA/JJ	.	.
8FF/	8a\) 8ff	.
*clefG2	*	*
=56:|!	=56:|!	=56:|!
*k[b-]	*k[b-]	*
*>G	*>G	*
!	!	!LO:DY:b:t=p.dol&colon;
!	!LO:TX:a:t=Var&colon; 3.	!
8r	8cc\	p
=57	=57	=57
*k[b-]	*k[b-]	*
8A/ 8f	8ff\L	.
8r	16ff\L 16aa	.
.	16aa\JJ 16ccc	.
16r	16aa\LL 16ccc	.
16c/LL 16g	16gg\ 16bb-	.
16f/ 16a	16ff\ 16aa	.
16c/JJ 16g	16ee\JJ 16gg	.
!!LO:LB:g=original
=58	=58	=58
*k[b-]	*k[b-]	*
8A/L 8f	8ff\L	.
16.A/L 16.f	16.ff\L	.
32A/JJk 32f	32ff\JJk	.
8A/L 8f	8ff\L	.
8c/J 8g	8ee\J 8gg	.
=59	=59	=59
*Xtuplet	*Xtuplet	*
!	!LO:TX:a:t=P:problem=w tym takcie triole bez oznaczeń	!
4f/ 4a	24aa\LL	.
.	24ff\	.
.	24aa\JJ	.
.	24ccc\LL	.
.	24aa\	.
.	24ccc\JJ	.
8c/L 8g	24bb-\LL	.
.	24gg\	.
.	24bb-\JJ	.
8f/J 8a	24aa\LL	.
.	24ff\	.
.	24aa\JJ	.
=60	=60	=60
!LO:TX:a:t=P:problem=w tym takcie triole bez oznaczeń	!	!
24c/LL	(4ff\ 4aa	.
24f/	.	.
24a/JJ	.	.
24cc/LL	.	.
24a/	.	.
24f/JJ	.	.
8c/	8ee\) 8gg	.
8r	16ee\LL 16gg	.
.	16ff\JJ 16aa	.
=61	=61	=61
8r	16gg\LL 16bb-	.
.	16ee\ 16gg	.
8c/L 8g	16gg\ 16bb-	.
.	16ee\JJ 16gg	.
8f/J 8a	8ff\ 8aa	.
8r	16g/LL 16ee	.
.	16a/JJ 16ff	.
=62	=62	=62
*clefF4	*	*
8r	16b-/LL 16gg	.
.	16g/ 16ee	.
8C\L 8G	16b-/ 16gg	.
.	16g/JJ 16ee	.
8F\J 8A	8a/ 8ff	.
!	!	!LO:DY:b:t=f.
8AA/ 8F	8cc/ 8ff	f
=63	=63	=63
*^	*	*
8F/L	8BB-\L	16cc/LL 16ff	.
.	.	16b-/ 16dd	.
8G/	8BB-\	16a/ 16cc	.
.	.	16g/JJ 16b-	.
8F/ 8A	8C\	8f/L 8a	.
8G/J 8B-	8C\J	8e/J 8g	.
*v	*v	*	*
!!LO:LB:g=original
=64	=64	=64
!LO:TX:a:t=P:problem=mixed beam	!	!
8FF/L	4B-/ 4e 4g	.
8F\	.	.
8FF/J	8A/ 8c 8f	.
=:||:	=:||:	=:||:
*>H	*>H	*
!	!	!LO:DY:b
8F\	16cc\LL	p
.	16aa\JJ	.
=65	=65	=65
8E/L	(32ff#X\LLL	.
.	32gg\	.
.	32aa\	.
.	32gg\JJ)	.
8C/J	(8gg\J	.
8D/L	(32gg\LLL)	.
.	32ffn\	.
.	32ee\	.
.	32dd\)JJJ	.
8GG/J	32cc\LLL	.
.	32bn\	.
.	32dd\	.
.	32ff\JJJ	.
=66	=66	=66
8C/L	(16dd#X\LL	.
.	16ee\J)	.
8CC/J	8ee\J	.
.	8qg/	.
8r	8.gg\L	.
8EE/ 8C	.	.
.	32ffn\LL	.
.	32ee\JJJ	.
=67	=67	=67
8FF/L 8C	(16ee\LL	.
.	16dd\)	.
8DD/J 8D	(16ff\	.
.	16dd\JJ)	.
8GG/L 8E	(16dd\LL	.
.	16cc\)	.
8GG/J 8F	(16cc\	.
!	!LO:TX:a:t=P:problem=kasownik nad nutą	!
.	16bn\JJ)	.
=68	=68	=68
16C/LL	4f/ 4b-	.
16CC/	.	.
16EE/	.	.
16GG/JJ	.	.
8C/	8e/ 8cc	.
8r	16ee\LL 16gg	p
.	16ff\JJ 16aa	.
=69	=69	=69
*clefG2	*	*
!	!LO:TX:a:t=P:problem=bemol poniżej	!
8r	16gg\LL 16bb-X	.
.	16ee\ 16gg	.
8c/L 8g	16gg\ 16bb-	.
.	16ee\JJ 16gg	.
8f/J 8a	8ff\ 8aa	.
8r	16g/LL 16ee	.
.	16a/JJ 16ff	.
!!LO:LB:g=original
=70	=70	=70
*clefF4	*	*
8r	16b-/LL 16gg	.
.	16g/ 16ee	.
8C'\L 8G	16b-/ 16gg	.
.	16g/JJ 16ee	.
!	!	!LO:DY:b:t=f.
8F'\J 8A	8a/ 8ff	f
8AA/ 8F	[8cc/ [8ff	.
=71	=71	=71
8BB-/L 8F	16cc/LL] 16ff]	.
.	16b-/ 16dd	.
8BB-/J 8G	16a/ 16cc	.
.	16g/JJ 16b-	.
8C/L 8F 8A	8f/L 8a	.
8C/J 8G 8B-	8e/J 8g	.
=	=	=
!LO:TX:a:t=P:problem=mixed beam	!	!
8FF/L	((4B-/ 4e 4g	.
8F\	.	.
8FF/J	8A/)) 8f	.
*clefF4	*	*
=72:|!	=72:|!	=72:|!
*k[b-]	*k[b-]	*
*M2/4	*M2/4	*
!	!LO:TX:a:t=Var&colon; 4.	!
8r	8cc\	.
=73!|:	=73!|:	=73!|:
*>I	*>I	*
!LO:TX:a:t=P:problem=mixed beam	!	!
16FF/LL	8.ff\L	.
16F\	.	.
16A\	.	.
16F\JJ	16aa\Jk	.
16B-\LL	8gg\L	.
16G\	.	.
16c\	8ee\J	.
16C\JJ	.	.
=74	=74	=74
16F/LL	4ff\	.
16FF/	.	.
16AA/	.	.
16C/JJ	.	.
16F/LL	8r	.
16FF/	.	.
16E/	8gg\	.
16C/JJ	.	.
=75	=75	=75
16F\LL	8aa\L	.
16C\	.	.
16A\	24ff\L	.
.	24aa\	.
16C\JJ	.	.
.	24ccc\JJ	.
16G\LL	16ccc\LL	.
16C\	16bb-\	.
16F\	16aa\	.
16A\JJ	16gg\JJ	.
=	=	=
16c\LL	4aa\	.
16C\	.	.
16F\	.	.
16A\JJ	.	.
!!LO:LB:g=original
=76	=76	=76
16c\LL	8gg\	.
16G\	.	.
16E\	16gg\LL	.
16C\JJ	16aa\JJ	.
=77	=77	=77
16c\LL	8.bb-\L	.
16c\	.	.
16e\	.	.
16c\JJ	16gg\Jk	.
16f\LL	8aa\	.
16c\	.	.
16A\	8r	.
16F\JJ	.	.
=78	=78	=78
16B-\LL	8.gg\L	.
16c\	.	.
16B-\	.	.
16c\JJ	16ee\Jk	.
16A\LL	8ff\L	.
16c\	.	.
16A\	8cc\J	.
16F\JJ	.	.
=79	=79	=79
16B-\LL	8dd\L	.
16d\	.	.
16B-\	8gg\	.
16G\JJ	.	.
16c\LL	8ff\	.
16Bn\	.	.
16c\	8ee\J	.
16C\JJ	.	.
=80	=80	=80
*>I1	*>I1	*
16F/LL	(4ee\	.
16FF/	.	.
16AA/	.	.
16C/JJ	.	.
16F/LL	8ff\)	.
16C/	.	.
16AA/	8cc\	.
16C/JJ	.	.
=81:|!	=81:|!	=81:|!
*>I2	*>I2	*
16F/LL	4ee\	.
16FF/	.	.
16AA/	.	.
16C/JJ	.	.
16F/LL	8ff\	.
16C/	.	.
16AA/	16cc\LL	.
16C/JJ	16aa\JJ	.
=82!|:	=82!|:	=82!|:
*>J	*>J	*
16E\LL	16aa\LL	.
16G\	16gg\J	.
16c\	8gg\J	.
16E\JJ	.	.
16D\LL	16gg\LL	.
16G\	16ff\	.
16Bn\	16aa\	.
16G\JJ	16ff\JJ	.
=83	=83	=83
16C\LL	16ff\LL	.
16E\	16ee\J	.
16G\	8ee\J	.
16Bn\JJ	.	.
16c\LL	8r	.
16G\	.	.
16E\	16gg\LL	.
16C\JJ	16ee\JJ	.
=84	=84	=84
16F\LL	16ee\LL	.
16A\	16dd\J	.
16F\	8aa\J	.
16D\JJ	.	.
!LO:TX:a:t=P:problem=mixed beam	!	!
16G\LL	8gg\L	.
16F#X\	.	.
16G\	8bn\J	.
16GG/JJ	.	.
!!LO:LB:g=original
=85	=85	=85
16C\LL	4bn\	.
16c\	.	.
16G\	.	.
16E\JJ	.	.
16C\LL	8cc\	.
16E\	.	.
16G\	16gg\LL	.
16c\JJ	16aa\JJ	.
=86	=86	=86
16C\LL	8.bb-X\L	.
16c\	.	.
16e\	.	.
16c\JJ	16gg\Jk	.
16f\LL	8aa\	.
16c\	.	.
16A\	8r	.
16F\JJ	.	.
=87	=87	=87
16B-\LL	8.gg\L	.
16c\	.	.
16B-\	.	.
16c\JJ	16ee\Jk	.
16A\LL	8ff\L	.
16c\	.	.
16A\	8cc\J	.
16F\JJ	.	.
=88	=88	=88
16B-\LL	8dd\L	.
16d\	.	.
16B-\	8gg\	.
16G\JJ	.	.
16c\LL	8ff\	.
16Bn\	.	.
16c\	8ee\J	.
16C\JJ	.	.
=89	=89	=89
*>J1	*>J1	*
16F/LL	(4ee\	.
16FF/	.	.
16AA/	.	.
16C/JJ	.	.
16F/LL	8ff\)	.
16C/	.	.
16AA/	16cc\LL	.
16C/JJ	16aa\JJ	.
=90:|!	=90:|!	=90:|!
*>K	*>K	*
16F/LL	4ff\	.
16FF/	.	.
16AA/	.	.
16C/JJ	.	.
8F\	4r	.
8r	.	.
==	==	==
*-	*-	*-
!!!system-decoration: [(g1)]
!!!ENC: Anna Matuszewska
!!!END: 2020-12-06
!!!ENC: Kamil Watkowski
!!!END: 2020-06-19
